img/svg/ios.svg

<svg xmlns="http://www.w3.org/2000/svg" preserveAspectRatio="xMidYMid" width="38" height="48" viewBox="0 0 38 48"><defs><style>.cls-2 { fill: #d1d5d7; }</style></defs><path d="M37.913 35.408c-3.995 8.944-7.156 12.592-10.913 12.592-1.461 0-2.754-.563-4.006-1.106-1.059-.459-2.059-.894-2.994-.894-.776 0-1.576.365-2.503.788-1.245.567-2.657 1.212-4.497 1.212-2.235 0-4.518-1.657-6.976-5.067-.115-.161-.273-.36-.464-.599-1.664-2.093-5.56-6.993-5.56-15.334 0-1.873.622-4.681 1.448-6.532 3.117-6.999 7.451-8.468 10.539-8.468 1.979.003 3.409.6 4.671 1.127 1.121.469 2.09.873 3.342.873.564 0 1.733-.45 2.765-.848 1.47-.566 2.992-1.152 4.235-1.152 3.441 0 6.354 1.594 9.741 5.328.191.21.282.492.254.774-.029.283-.177.539-.406.707-3.102 2.259-4.486 4.448-4.486 7.093 0 3.458 1.573 5.848 5.425 8.249.425.264.589.801.385 1.257zm-7.81-9.506c0-3.789 2.308-6.335 4.411-8.025-2.668-2.741-4.896-3.877-7.514-3.877-.871 0-2.276.541-3.517 1.019-1.367.526-2.548.981-3.483.981-1.652 0-2.903-.523-4.113-1.027-1.195-.499-2.323-.971-3.888-.973-3.59 0-6.603 2.518-8.725 7.282-.714 1.603-1.274 4.114-1.274 5.718 0 7.643 3.592 12.16 5.126 14.089.214.269.392.494.521.675 1.998 2.771 3.849 4.236 5.353 4.236 1.405 0 2.555-.524 3.667-1.032 1.044-.476 2.122-.968 3.333-.968 1.352 0 2.592.539 3.791 1.06 1.113.483 2.164.94 3.209.94 1.922 0 4.459-1.285 8.734-10.628-3.936-2.646-5.631-5.518-5.631-9.47zm-11.103-13.902c-.553 0-1-.447-1-1 0-6.296 5.279-11 10-11 .553 0 1 .448 1 1 0 5.666-5.634 11-10 11zm1.065-2.132c2.939-.698 6.265-4.075 6.846-7.757-2.932.582-6.335 3.407-6.846 7.757z" id="path-1" class="cls-2" fill-rule="evenodd"/></svg>

<svg xmlns="http://www.w3.org/2000/svg" xmlns:xlink="http://www.w3.org/1999/xlink" preserveAspectRatio="xMidYMid" width="38" height="48" viewBox="0 0 38 48">
  <defs>
    <style>

      .cls-2 {
        fill: #d1d5d7;
      }
    </style>
  </defs>
  <path d="M37.913,35.408 C33.918,44.352 30.757,48.000 27.000,48.000 C25.539,48.000 24.246,47.437 22.994,46.894 C21.935,46.435 20.935,46.000 20.000,46.000 C19.224,46.000 18.424,46.365 17.497,46.788 C16.252,47.355 14.840,48.000 13.000,48.000 C10.765,48.000 8.482,46.343 6.024,42.933 C5.909,42.772 5.751,42.573 5.560,42.334 C3.896,40.241 -0.000,35.341 -0.000,27.000 C-0.000,25.127 0.622,22.319 1.448,20.468 C4.565,13.469 8.899,12.000 11.987,12.000 C13.966,12.003 15.396,12.600 16.658,13.127 C17.779,13.596 18.748,14.000 20.000,14.000 C20.564,14.000 21.733,13.550 22.765,13.152 C24.235,12.586 25.757,12.000 27.000,12.000 C30.441,12.000 33.354,13.594 36.741,17.328 C36.932,17.538 37.023,17.820 36.995,18.102 C36.966,18.385 36.818,18.641 36.589,18.809 C33.487,21.068 32.103,23.257 32.103,25.902 C32.103,29.360 33.676,31.750 37.528,34.151 C37.953,34.415 38.117,34.952 37.913,35.408 ZM30.103,25.902 C30.103,22.113 32.411,19.567 34.514,17.877 C31.846,15.136 29.618,14.000 27.000,14.000 C26.129,14.000 24.724,14.541 23.483,15.019 C22.116,15.545 20.935,16.000 20.000,16.000 C18.348,16.000 17.097,15.477 15.887,14.973 C14.692,14.474 13.564,14.002 11.999,14.000 C8.409,14.000 5.396,16.518 3.274,21.282 C2.560,22.885 2.000,25.396 2.000,27.000 C2.000,34.643 5.592,39.160 7.126,41.089 C7.340,41.358 7.518,41.583 7.647,41.764 C9.645,44.535 11.496,46.000 13.000,46.000 C14.405,46.000 15.555,45.476 16.667,44.968 C17.711,44.492 18.789,44.000 20.000,44.000 C21.352,44.000 22.592,44.539 23.791,45.060 C24.904,45.543 25.955,46.000 27.000,46.000 C28.922,46.000 31.459,44.715 35.734,35.372 C31.798,32.726 30.103,29.854 30.103,25.902 ZM19.000,12.000 C18.447,12.000 18.000,11.553 18.000,11.000 C18.000,4.704 23.279,-0.000 28.000,-0.000 C28.553,-0.000 29.000,0.448 29.000,1.000 C29.000,6.666 23.366,12.000 19.000,12.000 ZM20.065,9.868 C23.004,9.170 26.330,5.793 26.911,2.111 C23.979,2.693 20.576,5.518 20.065,9.868 Z" id="path-1" class="cls-2" fill-rule="evenodd"/>
</svg>
